X:1
T:Shadows
T:Shadows
T:Robert Harkness
T:Robert Harkness, 1906
T:Public Domain Courtesy of the Cyber Hymnal™
T:Public Domain Courtesy of the Cyber Hymnal™
C:Robert Harkness
Z:Public Domain
Z:Courtesy of the Cyber Hymnal™
%%score 1 ( 2 3 ) ( 4 5 )
L:1/8
Q:1/4=100
M:4/4
K:Bb
V:1 treble 
V:2 treble 
V:3 treble 
V:4 bass 
V:5 bass 
V:1
 BA | GF=EF GFEF | F2 C4 CD | EDEF AGC^C | D6 BA | GF=EF GFB=B | c2 G4 AB | FGAB ccG^G | A6 z2 | %9
[Q:1/4=103] z8 | z8 | z8 | z8 | z8 | z8 | z8 | z8 |] %17
V:2
 [FB][FA] | [DG][DF][^C=E][DF] [DG][DF][CE][DF] | [EF]2 [EA]4 [Ec][DB] | %3
w: 1.~When we|cross the val- ley there need be no|sha- dows, When life’s|
w: 2.~When our|loved ones leave us there need be no|sha- dows, If their|
w: 3.~When He|comes to meet us there need be no|sha- dows, When He|
 [EA][DB][Ec][DB] [EA][EG][CF][^CF] | [DF]6 [FB][FA] | [DG][DF][^C=E][DF] [DG][DF][FB][F=B] | %6
w: day is end- ed and its sor- rows|o’er; When the|sum- mons comes to meet the bless- èd|
w: faith is fixed in Je- sus as their|Lord; For they|go to be with Him who died to|
w: comes in all His glor- i- ous ar-|ray; When the|trump of God shall sound and loved ones|
 [Ec]2 [EG]4 [EA][DB] | [DF][DG][DA][DB] [=Ec][Ec][EG][E^G] | [EA]6 z2 | %9
w: Sav- ior, When we|rise to dwell with Him for- ev- er-|more.|
w: save them, To be|with the One whom they have long a-|dored.|
w: wak- en, When He|leads us on- ward with tri- umph- ant|sway.|
"^Refrain" [FB] [FB]4 [Fd][Fc][FB] | [EG] [EG]6 z | [EF]>[EG] [EA][DB] [Ec][D=B][Ec][Fd] | F8 | %13
w: ||||
w: Sha- dows! no need of|sha- dows|When at last we lay life’s bur- dens|down;|
w: ||||
 [DB] [DB]4 [Fd][Fc][FB] | [Ge]2 [EG]6 | [EF]>[EG] [EA][DB] !fermata![Ge][Fd] [Fd]<[Ec] | %16
w: |||
w: Sha- dows! no need of|sha- dows!|When at last we gain the vic- tor’s|
w: |||
 !fermata![DB]6 x2 |] %17
w: |
w: crown.|
w: |
V:3
 x2 | x8 | x8 | x8 | x8 | x8 | x8 | x8 | x8 | x8 | x8 | x8 | (C2 D2 E4) | x8 | x8 | x8 | x8 |] %17
V:4
 [B,D][A,D] | [G,B,][F,B,][=E,B,][F,B,] [G,B,][F,B,][E,B,][F,B,] | [F,A,]2 [F,C]4 [F,A,][F,B,] | %3
 [F,C][F,B,][F,A,][F,B,] [F,C][F,B,][F,A,][F,A,] | B,6 [B,D][A,D] | %5
 [G,B,][F,B,][=E,B,][F,B,] [G,B,][F,B,][B,D][G,D] | [C,C]2 [C,C]4 [F,C][F,B,] | %7
 [F,B,][G,B,][A,B,]B, [G,B,][G,B,][C,C][C,C] | [F,C]6 z2 | [B,D] [B,D]4 [B,,B,][C,A,][D,B,] | %10
 [E,B,] [E,B,]6 z | [F,A,]>[F,B,] [F,C][F,B,] [F,A,][F,^G,][F,A,][F,B,] | %12
 ([E,A,]2 [D,B,]2 [C,C]2 [F,A,]2) | B, [B,D]4 [B,,B,][C,A,][D,B,] | [E,B,]2 [E,B,]6 | %15
 [F,A,]>[F,B,] [^F,C][G,B,] !fermata![E,B,][=F,B,] [F,B,]<[F,A,] | !fermata![B,,B,]6 x2 |] %17
V:5
 x2 | x8 | x8 | x8 | (B,,G,,F,,D,, B,,,2) x2 | x8 | x8 | x3 B, x4 | x8 | x (F,2 B,,2) x3 | x8 | %11
 x8 | x8 | B, (F,2 B,,2) x3 | x8 | x8 | x8 |] %17

